src/main/resources/icons/AllIcons/nodes/staticMark.svg

<svg xmlns="http://www.w3.org/2000/svg" width="16" height="16" viewBox="0 0 16 16"><rect id="frame" width="16" height="16" fill="none"/><path fill="#9AA7B0" fill-rule="evenodd" d="M3.498 9l-1.377 1.378L0 12.501l3.499 3.498 3.498-3.501L3.498 9zm-1.236 3.501l1.237-1.237 1.235 1.235-1.236 1.238-1.236-1.236z"/></svg>

<!-- Copyright 2000-2021 JetBrains s.r.o. Use of this source code is governed by the Apache 2.0 license that can be found in the LICENSE file. -->
<svg xmlns="http://www.w3.org/2000/svg" width="16" height="16" viewBox="0 0 16 16">
  <path fill="#9AA7B0" fill-rule="evenodd" d="M3.498,9 L2.121,10.378 L0,12.501 L3.499,15.999 L6.997,12.498 L3.498,9 Z M2.262,12.501 L3.499,11.264 L4.734,12.499 L3.498,13.737 L2.262,12.501 Z"/>
</svg>
